flaticon/army-badges/dog-tag-1.svg

<svg xmlns="http://www.w3.org/2000/svg" width="32" height="32" viewBox="0 0 24 24">
    <path d="M19.304688 16.074219C19.550781 16.074219 19.710938 15.910156 19.710938 15.667969 19.710938 15.421875 19.507812 15.261719 19.304688 15.261719L10.363281 15.625C10.117188 15.625 9.957031 15.789062 9.957031 16.03125 9.957031 16.277344 10.160156 16.4375 10.363281 16.4375zM19.46875 18.917969L10.523438 19.285156C10.28125 19.285156 10.117188 19.445312 10.117188 19.691406 10.117188 19.933594 10.320312 20.097656 10.523438 20.097656L19.46875 19.730469C19.710938 19.730469 19.875 19.570312 19.875 19.324219 19.875 19.082031 19.671875 18.878906 19.46875 18.917969zM10.078125 9.164062L19.019531 8.796875C19.265625 8.796875 19.425781 8.632812 19.425781 8.390625 19.425781 8.144531 19.222656 7.984375 19.019531 7.984375L10.078125 8.347656C9.835938 8.347656 9.671875 8.511719 9.671875 8.757812 9.671875 9 9.875 9.164062 10.078125 9.164062zM19.144531 12.414062C19.386719 12.414062 19.550781 12.25 19.550781 12.007812 19.550781 11.765625 19.347656 11.601562 19.144531 11.601562L10.199219 11.96875C9.957031 11.96875 9.792969 12.128906 9.792969 12.375 9.792969 12.617188 9.996094 12.78125 10.199219 12.78125zM19.144531 12.414062"/>
    <path d="M 22.761719 3.269531 C 22.761719 2.820312 22.476562 2.414062 22.03125 2.25 C 19.589844 1.132812 16.921875 0.632812 14.261719 0.734375 C 14.238281 0.722656 14.210938 0.710938 14.183594 0.707031 C 10.851562 -0.269531 7.355469 -0.226562 4.0625 0.789062 C 3.65625 0.949219 3.328125 1.316406 3.25 1.765625 L 0.445312 18.796875 C 0.363281 19.242188 0.566406 19.691406 0.929688 19.976562 L 1.054688 20.058594 C 3.503906 21.824219 6.386719 22.953125 9.394531 23.257812 C 11.046875 23.757812 12.746094 24 14.46875 24 C 17.355469 24 20.242188 23.269531 22.84375 21.84375 L 22.964844 21.765625 C 23.371094 21.5625 23.574219 21.113281 23.574219 20.667969 Z M 1.417969 19.324219 C 1.296875 19.242188 1.214844 19.121094 1.257812 18.960938 L 4.0625 1.886719 C 4.0625 1.765625 4.183594 1.640625 4.304688 1.601562 C 5.929688 1.074219 7.597656 0.828125 9.265625 0.828125 C 10.074219 0.828125 10.847656 0.910156 11.617188 1.03125 C 10.824219 1.179688 10.042969 1.386719 9.273438 1.640625 C 9.226562 1.65625 9.179688 1.671875 9.136719 1.6875 C 8.15625 2.019531 7.207031 2.429688 6.296875 2.941406 C 5.851562 3.1875 5.6875 3.714844 5.6875 4.121094 L 5.984375 10.429688 L 5.929688 10.421875 C 5.726562 10.382812 5.523438 10.542969 5.484375 10.746094 C 5.445312 10.949219 5.605469 11.15625 5.808594 11.195312 L 6.023438 11.226562 L 6.160156 14.132812 L 5.363281 13.960938 C 5.160156 13.917969 4.914062 14.082031 4.875 14.285156 C 4.832031 14.488281 4.996094 14.730469 5.199219 14.773438 L 6.199219 14.992188 L 6.335938 17.867188 L 4.753906 17.617188 C 4.550781 17.578125 4.347656 17.738281 4.304688 17.941406 C 4.265625 18.144531 4.425781 18.347656 4.628906 18.390625 L 6.375 18.664062 L 6.5 21.359375 C 6.523438 21.476562 6.546875 21.578125 6.578125 21.675781 C 6.597656 21.75 6.625 21.816406 6.65625 21.882812 C 4.832031 21.355469 3.085938 20.542969 1.542969 19.40625 Z M 22.558594 21.03125 L 22.4375 21.113281 C 17.921875 23.632812 12.394531 23.835938 7.679688 21.722656 L 7.558594 21.683594 C 7.417969 21.648438 7.335938 21.550781 7.316406 21.421875 C 7.316406 21.417969 7.316406 21.414062 7.316406 21.414062 C 7.316406 21.394531 7.3125 21.378906 7.3125 21.359375 L 6.5 4.082031 C 6.5 3.917969 6.582031 3.714844 6.703125 3.632812 C 11.339844 1.074219 16.949219 0.828125 21.703125 2.984375 C 21.867188 3.023438 21.949219 3.144531 21.949219 3.308594 L 22.761719 20.667969 C 22.761719 20.828125 22.679688 20.953125 22.558594 21.03125 Z M 22.558594 21.03125"/>
    <path d="M 14.222656 6.113281 C 15.117188 6.113281 15.851562 5.382812 15.851562 4.488281 C 15.851562 3.59375 15.117188 2.863281 14.222656 2.863281 C 13.328125 2.863281 12.597656 3.59375 12.597656 4.488281 C 12.597656 5.382812 13.328125 6.113281 14.222656 6.113281 Z M 14.222656 3.675781 C 14.671875 3.675781 15.039062 4.039062 15.039062 4.488281 C 15.039062 4.933594 14.671875 5.300781 14.222656 5.300781 C 13.777344 5.300781 13.410156 4.933594 13.410156 4.488281 C 13.410156 4.039062 13.777344 3.675781 14.222656 3.675781 Z M 14.222656 3.675781"/>
</svg>

<svg xmlns="http://www.w3.org/2000/svg" width="32" height="32" viewBox="0 0 24 24">
    <path d="M19.305 16.074c.246 0 .406-.164.406-.406a.406.406 0 0 0-.406-.406l-8.942.363c-.246 0-.406.164-.406.406 0 .246.203.407.406.407zm0 0M19.469 18.918l-8.946.367c-.242 0-.406.16-.406.406 0 .243.203.407.406.407l8.946-.368c.242 0 .406-.16.406-.406 0-.242-.203-.445-.406-.406zm0 0M10.078 9.164l8.942-.367c.246 0 .406-.164.406-.406a.406.406 0 0 0-.406-.407l-8.942.364c-.242 0-.406.164-.406.41 0 .242.203.406.406.406zm0 0M19.145 12.414a.385.385 0 0 0 .406-.406.408.408 0 0 0-.406-.406l-8.946.367c-.242 0-.406.16-.406.406 0 .242.203.406.406.406zm0 0"/>
    <path d="M22.762 3.27c0-.45-.285-.856-.73-1.02a17.103 17.103 0 0 0-7.77-1.516.265.265 0 0 0-.078-.027A17.512 17.512 0 0 0 4.063.789c-.407.16-.735.527-.813.977L.445 18.796c-.082.446.121.895.485 1.18l.125.083c2.449 1.765 5.332 2.894 8.34 3.199 1.652.5 3.351.742 5.074.742 2.886 0 5.773-.73 8.375-2.156l.12-.078c.407-.203.61-.653.61-1.098zM1.418 19.324c-.121-.082-.203-.203-.16-.363L4.062 1.887c0-.121.122-.246.243-.285a16.023 16.023 0 0 1 4.96-.774c.81 0 1.583.082 2.352.203a18.125 18.125 0 0 0-2.48.657 16.7 16.7 0 0 0-2.84 1.253c-.445.247-.61.774-.61 1.18l.297 6.309-.054-.008c-.203-.04-.407.121-.446.324-.039.203.121.41.325.45l.214.03.137 2.907-.797-.172c-.203-.043-.449.121-.488.324-.043.203.121.445.324.488l1 .22.137 2.874-1.582-.25c-.203-.039-.406.121-.45.324-.038.204.122.407.325.45l1.746.273.125 2.695c.023.118.047.22.078.317.02.074.047.14.078.207-1.824-.528-3.57-1.34-5.113-2.477zm21.14 1.707l-.12.082c-4.516 2.52-10.043 2.723-14.758.61l-.121-.04a.306.306 0 0 1-.243-.261v-.008c0-.02-.003-.035-.003-.055L6.5 4.082c0-.164.082-.367.203-.45 4.637-2.558 10.246-2.804 15-.648.164.04.246.16.246.325l.813 17.359c0 .16-.082.285-.203.363zm0 0"/>
    <path d="M14.223 6.113c.894 0 1.629-.73 1.629-1.625 0-.894-.735-1.625-1.63-1.625-.894 0-1.624.73-1.624 1.625s.73 1.625 1.625 1.625zm0-2.437c.449 0 .816.363.816.812a.818.818 0 0 1-.816.813.817.817 0 0 1-.813-.813c0-.449.367-.812.813-.812zm0 0"/>
</svg>
